src/img/point.svg

<svg width="30" height="30" viewBox="0 0 30 30" fill="none" xmlns="http://www.w3.org/2000/svg">
<path d="M14.9992 6.44897C11.9282 6.44897 9.42969 8.94747 9.42969 12.0185C9.42969 15.0895 11.9282 17.588 14.9992 17.588C18.0702 17.588 20.5687 15.0895 20.5687 12.0185C20.5687 8.94747 18.0703 6.44897 14.9992 6.44897ZM14.9992 15.243C13.2212 15.243 11.7747 13.7965 11.7747 12.0185C11.7747 10.2405 13.2212 8.79401 14.9992 8.79401C16.7772 8.79401 18.2237 10.2405 18.2237 12.0185C18.2237 13.7965 16.7772 15.243 14.9992 15.243Z" fill="#5FBE3F"/>
<path d="M14.9989 0C8.37191 0 2.98047 5.3915 2.98047 12.0185V12.3507C2.98047 15.7022 4.90199 19.6079 8.69184 23.9589C11.4392 27.1131 14.1481 29.3125 14.262 29.4046L14.9989 30L15.7358 29.4046C15.8498 29.3125 18.5587 27.1131 21.306 23.9589C25.0958 19.6079 27.0174 15.7023 27.0174 12.3507V12.0185C27.0174 5.3915 21.6259 0 14.9989 0ZM24.6723 12.3507C24.6723 18.0147 17.3744 24.8711 14.9989 26.9524C12.6228 24.8704 5.32551 18.0143 5.32551 12.3507V12.0185C5.32551 6.68461 9.66502 2.3451 14.9989 2.3451C20.3328 2.3451 24.6723 6.68461 24.6723 12.0185V12.3507Z" fill="#5FBE3F"/>
</svg>

<svg xmlns="http://www.w3.org/2000/svg" fill="none" viewBox="0 0 30 30"><path fill="#5FBE3F" d="M15 6.449a5.576 5.576 0 0 0-5.57 5.57A5.576 5.576 0 0 0 15 17.587a5.576 5.576 0 0 0 5.569-5.57 5.576 5.576 0 0 0-5.57-5.569zm0 8.794a3.228 3.228 0 0 1-3.225-3.225 3.228 3.228 0 0 1 3.224-3.224 3.228 3.228 0 0 1 3.225 3.224 3.228 3.228 0 0 1-3.225 3.225z"/><path fill="#5FBE3F" d="M14.999 0C8.372 0 2.98 5.391 2.98 12.018v.333c0 3.351 1.922 7.257 5.712 11.608 2.747 3.154 5.456 5.354 5.57 5.446l.737.595.737-.595c.114-.093 2.823-2.292 5.57-5.446 3.79-4.351 5.711-8.257 5.711-11.608v-.333C27.017 5.391 21.626 0 15 0zm9.673 12.35c0 5.665-7.298 12.521-9.673 14.602-2.376-2.082-9.673-8.938-9.673-14.601v-.333c0-5.333 4.339-9.673 9.673-9.673s9.673 4.34 9.673 9.673v.333z"/></svg>
